X:1825
T:Eveline (F. Paris)
O:england
C:F. Paris: Rue de l'oiseau
M:3/4
L:1/8
K:C
+G2g2+ d2c2|B4G2|A2B2c2-|+F6c6+|\
~B2G2e2|B4G2|A2B3c|B2 AB cd|\
G2d2c2|B4G2|
A2B2c2|dc B2A2|\
~B2G2e2|B4G2|A2B3c|de dc BA:|\
|:GG GA GA|G2d4|GG GA GA|
GG  dc Bd|GG GA GA|GG GA GG|1 AB~c2 Bc|\
de dc BA:|2 A2B2c2|d2e2^f2||


